X:163
U: ~ = !turn!
%%topmargin 3cm
T:Perron's Reel
B:Traditional Irish Fiddle Tunes. Randy Miller and Jack Perron.
Z:Transcribed by Ralph Palmer
C:Bob McQuillen
R:Reel
L:1/8
M:C|
K:A
AF | EFAB cAGA | EBBc dBBd | cdec fedc | BABc B2 cB |
EFAB cAGA | EBBc dBBd | cdec Bcde | c2 A2 A2 ::
cd | eAce fedf | ec A2 A2 AB | cAce ac'ba | bg e2 e2 ab |
c'aba c'aba | babc' aece | gaec dBed | c2 A2 A2 :|]
